X:174
T:Figure Dance,A. (p)1665.PLFD.174
M:6/4
L:1/4
Q:3/4=80
S:Playford, Dancing Master,2nd Supp. to 3rd Ed.,1665
O:England
H:166
Z:Chris Partington
K:Bb
b3a3|g>ag^f>ga|g2d(cd)B|ABG^F>=ED|f2ff>ed|
c2de2f|d>cBA>GF|B6:||:d2=ef>ef|gaba3|
b2ag>ag|f2=ed>ef/g/|a>bag2f|(f3c2)d|e>fedef|
c2BB2g|=B>ABc2a|^c>=Bcd2a|b>agg2^f|g6:|
